icons/svg/icons8/cafe.svg

<svg width="26" height="26" viewBox="0 0 26 26" fill="none" xmlns="http://www.w3.org/2000/svg">
<path d="M19 25C19 25.551 18.551 26 18 26H4C3.449 26 3 25.551 3 25V8C3 7.449 3.449 7 4 7H18C18.551 7 19 7.449 19 8V25Z" fill="#333333"/>
<path d="M18 11.934C18 11.934 19.219 11 21 11C23.424 11 24 13 24 14C24 18.433 18 18.782 18 21.972" stroke="#333333" stroke-width="2" stroke-miterlimit="10" stroke-linecap="round" stroke-linejoin="round"/>
<path d="M14.9998 5.92201C14.2188 2.98101 18.8278 3.79501 15.9998 0.782013C17.0938 3.84601 12.2028 3.04101 14.9998 5.92201Z" fill="#333333"/>
<path d="M10.9998 5.92201C10.2188 2.59601 14.8278 3.51701 11.9998 0.109009C13.0938 3.57401 8.20278 2.66401 10.9998 5.92201Z" fill="#333333"/>
<path d="M6.99978 5.92201C6.21878 2.98101 10.8278 3.79501 7.99978 0.782013C9.09378 3.84601 4.20278 3.04101 6.99978 5.92201Z" fill="#333333"/>
</svg>

<?xml version="1.0" encoding="utf-8"?>
<!-- Generator: Adobe Illustrator 15.0.0, SVG Export Plug-In . SVG Version: 6.00 Build 0)  -->
<!DOCTYPE svg PUBLIC "-//W3C//DTD SVG 1.1//EN" "http://www.w3.org/Graphics/SVG/1.1/DTD/svg11.dtd">
<svg version="1.1" id="Layer_1" xmlns="http://www.w3.org/2000/svg" xmlns:xlink="http://www.w3.org/1999/xlink" x="0px" y="0px"
	 width="26px" height="26px" viewBox="0 0 26 26" enable-background="new 0 0 26 26" xml:space="preserve">
<path fill="#333333" d="M19,25c0,0.551-0.449,1-1,1H4c-0.551,0-1-0.449-1-1V8c0-0.551,0.449-1,1-1h14c0.551,0,1,0.449,1,1V25z"/>
<rect fill="none" width="26" height="26"/>
<path fill="none" stroke="#333333" stroke-width="2" stroke-linecap="round" stroke-linejoin="round" stroke-miterlimit="10" d="
	M18,11.934c0,0,1.219-0.934,3-0.934c2.424,0,3,2,3,3c0,4.433-6,4.782-6,7.972"/>
<path fill="#333333" d="M15,5.922c-0.781-2.941,3.828-2.127,1-5.14C17.094,3.846,12.203,3.041,15,5.922z"/>
<path fill="#333333" d="M11,5.922c-0.781-3.326,3.828-2.405,1-5.813C13.094,3.574,8.203,2.664,11,5.922z"/>
<path fill="#333333" d="M7,5.922c-0.781-2.941,3.828-2.127,1-5.14C9.094,3.846,4.203,3.041,7,5.922z"/>
</svg>
